!!!OTL: Christus, mein Leben!
!!!ARE: Europa, Mitteleuropa, Deutschland
!!!SCT: A0658
!!!YEM: Copyright 1995, estate of Helmut Schaffrath.
**kern
*ICvox
*Ivox
*M4/2
*k[b-]
*F:
{2f
=1
2a
2g
2a
2b-
=2
1cc
2a}
{2dd
=3
2.cc
4b-
2a
2g
=4
1a
2r}
{2cc
=5
2dd
2ee
2ff
2ee
=6
1dd
2cc}
{2a
=7
2g
2f
2f
2e
=8
1.f}
==
!!!AGN: Romanze, Ballade, Lied, religioeses Lied
!! Vulpius' Gsgb 1609
!!!ONB: ESAC (Essen Associative Code) Database: ALTDEU
!!!AMT: simple quadruple
!!!AIN: vox
!!!EED: Helmut Schaffrath
!!!EEV: 1.0
*-
